X: 10814
T: Drake's Lad, The
R: jig
M: 6/8
K: Dmajor
|:B|AFA D2 E|FAF F2 B|AFE DFA|B2 A d2 B|
AFA D2 E|FAF F2 B|dcd edc|B2 c d2:|
|:A|B3 BAF|ABc d2 e|f2 d edc|dcA BAF|
B/c/dc BAF|ABc d2 e|f2 d edc|1 B3 B2:|2 B2 c d2||

